database-eye-off.svg

<svg fill="currentColor" viewBox="0 0 24 24"><path d="m14.1 10.9-7-7c1.3-.6 3-.9 4.9-.9 4.4 0 8 1.8 8 4 0 1.9-2.5 3.4-5.9 3.9m2.1 2.1h.8c.9 0 1.7.1 2.5.4.3-.4.5-.9.5-1.4V9c0 1.5-1.7 2.9-4.3 3.5zm2.2 2.2 4.4 4.4c.1-.2.2-.4.3-.5-.9-2-2.6-3.5-4.7-3.9m3.7 6.3-1.3 1.3-.6-.6c-1 .5-2.1.9-3.2.9-2.7 0-5.1-1.7-6-4 .6-1.4 1.6-2.5 2.9-3.2l-1.5-1.5c-.7.4-1.3 1-1.9 1.6-3.7-.4-6.5-2-6.5-4V9c0 2.1 3.1 3.7 7.1 4l-2.3-2.3C6 10 4 8.6 4 7c0-.3.1-.6.2-.9L1.1 3l1.3-1.3zm-3.3-.8-1.1-1.1c-.1.3-.4.4-.7.4-.6 0-1-.4-1-1 0-.3.1-.6.4-.8l-1.1-1.1c-.5.5-.8 1.1-.8 1.8 0 1.4 1.1 2.5 2.5 2.5.7.1 1.4-.2 1.8-.7M8.8 19l.3-.7c.1-.2.2-.3.2-.5-3.1-.6-5.3-2-5.3-3.8v3c0 1.8 2.4 3.3 5.7 3.8-.2-.3-.4-.7-.5-1.1z"/></svg>

<svg  viewBox="0 0 24 24" fill="currentColor"><path  d="M14.1 10.9L7.1 3.9C8.4 3.3 10.1 3 12 3C16.4 3 20 4.8 20 7C20 8.9 17.5 10.4 14.1 10.9M16.2 13H17C17.9 13 18.7 13.1 19.5 13.4C19.8 13 20 12.5 20 12V9C20 10.5 18.3 11.9 15.7 12.5L16.2 13M18.4 15.2L22.8 19.6C22.9 19.4 23 19.2 23.1 19.1C22.2 17.1 20.5 15.6 18.4 15.2M22.1 21.5L20.8 22.8L20.2 22.2C19.2 22.7 18.1 23.1 17 23.1C14.3 23.1 11.9 21.4 11 19.1C11.6 17.7 12.6 16.6 13.9 15.9L12.4 14.4C11.7 14.8 11.1 15.4 10.5 16C6.8 15.6 4 14 4 12V9C4 11.1 7.1 12.7 11.1 13L8.8 10.7C6 10 4 8.6 4 7C4 6.7 4.1 6.4 4.2 6.1L1.1 3L2.4 1.7L22.1 21.5M18.8 20.7L17.7 19.6C17.6 19.9 17.3 20 17 20C16.4 20 16 19.6 16 19C16 18.7 16.1 18.4 16.4 18.2L15.3 17.1C14.8 17.6 14.5 18.2 14.5 18.9C14.5 20.3 15.6 21.4 17 21.4C17.7 21.5 18.4 21.2 18.8 20.7M8.8 19L9.1 18.3C9.2 18.1 9.3 18 9.3 17.8C6.2 17.2 4 15.8 4 14V17C4 18.8 6.4 20.3 9.7 20.8C9.5 20.5 9.3 20.1 9.2 19.7L8.8 19Z"/></svg>
